!!!OTL: Der schöne Kohlenb&uuml;renbub (3-82), S. 226
!!!id: P1055
**kern
*clefG2
*k[]
*F:
{8f
=1
8f
8c
8c
8a
8a
8a
=2yy
8a
=3
8c
8c
8a
8a
4a}
=4
{4g
4cc
8a
8g
=5
4a
4f
4f}
=6
{8c
8a
4a
8c
8c
=7
8a
8a
2a}
=8
{4g
4cc
8a
8g
=9
2.f}
=10
{4g
4c
8c
8c
=11
8a
8a
4f
4f}
=12
{4g
4c
4c
=13
4.f
8a
4a
=14
2.cc}
==
*-
!!!minrhy: 8
!!!meters: 3/4 ]  ZZ[6
!!!cut: Der schöne Kohlenb&uuml;renbub (3-82), S. 226
!!!reg: Lothringen
!!!trd: PINCK, Louis: Verklingende Weisen, Bd3, Metz 1933
!!!rhy1:   XXXXXX  XXXXX_
!!!rhy2: X_X_XX  X_X_X_
!!!key: P1055  08  F 3/4 ]  ZZ[6
!!!mod: VIERTONSKALA ]  AMBITUS[8
!!!kad: 313115
!!!akz: -5-5_23_-53_21_23_215_
!!!fot: 'a__b__c__bw_d__e__
!!!for: 'a__b__c__bw_bw_d__
!!!fok: '/__^d_/__^d_\__Va_
!! PHRAS[VOLLTAKTIG]
!!!fkt: ???
!! LOTH VKL
!! PR[34] 2K[0] 2G[4] 3K[0] 3G[2] 4A[18] 4Ü[0] 5A[0] 6K[0] 6G[0]
!! 7K[0] 7G[0] 8A[0] MEHR[0] SI[24] ABS[50] SR[4] SP[20]
!! ST[15] 2k[6] 2g[26] 3k[6] 3g[0] 4d[4] 4ü[0] 5d[0] 6k[0] 6g[0]
!! 7k[0] 7g[0] 8d[0] mehr[0] si[42] dm[-18] sr[32] sp[10]
!! 1F[11] 2F[70] 3F[9] 4F[2] LF[0] 2P[8] 3P[0] 4P[0] TRI[0] DF[5] AB[53]
!! TF[0] U3K[0] U3[0] U4[0] U4Ü[0] U5[22] U6K[0] U6[16] U7K[0] U7[10]
!! N1[18] N2K[0] N2[24] N3K[0] N3[8] N4[0] N4Ü[0] N5[4] N6K[0] N6[0]
!!!n7k: 0] N7[0] O1[0] O2K[0] O2[0] O3K[0] O3[0] HÖ[0
!!!RNB: symbol: &uuml;  = u umlaut (UTF-8: Ã¼)
